X:585
T:Apple Tree #1, The
C:Joe Buchanan's Scottish Tome - Page 160.2
I:160 2
Z:Carl Allison
R:Reel
L:1/8
M:4/4
K:A
"A"A2 a2 fecB | "A"Aaga "F#7"fedc | "Bm"Bcde fBBc | "Bm"Bcde "E7"fefa |
"A"A2 a2 fecB | "A"Aaga "F#7"fedc | "Bm"Bcde fBBa | "E7"gefg "A"a2 A2 |
"A"EAAB cBAF | "A"EAAB cBAG | "Bm"FBBc dcBA | "E7"GABc defe |
"A"EAAB cBAF | "A"EAAB cBAG | "Bm"FBBc dcBA | "E7"GEF "A"A2 e2 :|

